assets/icons/telegram-filled.svg

<svg width="24" height="25" viewBox="0 0 24 25" fill="none" xmlns="http://www.w3.org/2000/svg">
<g clip-path="url(#clip0_25_2662)">
<path d="M12 1.01257C5.57775 1.01257 0.375 6.21607 0.375 12.6376C0.375 19.0591 5.5785 24.2626 12 24.2626C18.4222 24.2626 23.625 19.0591 23.625 12.6376C23.625 6.21607 18.4215 1.01257 12 1.01257ZM17.7098 8.97682L15.8018 17.9678C15.6608 18.6053 15.2813 18.7598 14.7518 18.4598L11.8455 16.3178L10.4438 17.6678C10.2893 17.8223 10.158 17.9536 9.858 17.9536L10.0642 14.9956L15.45 10.1296C15.6848 9.92332 15.3982 9.80632 15.0885 10.0126L8.43225 14.2028L5.5635 13.3073C4.94025 13.1108 4.926 12.6841 5.69475 12.3841L16.9028 8.06182C17.4233 7.87432 17.8778 8.18857 17.709 8.97607L17.7098 8.97682Z" fill="#111111"/>
</g>
<defs>
<clipPath id="clip0_25_2662">
<rect width="24" height="24" fill="white" transform="translate(0 0.637573)"/>
</clipPath>
</defs>
</svg>

<svg xmlns="http://www.w3.org/2000/svg" width="24" height="25" fill="none" viewBox="0 0 24 25"><g clip-path="url(#a)"><path fill="#111" d="M12 1.013C5.578 1.013.375 6.216.375 12.638S5.579 24.263 12 24.263s11.625-5.204 11.625-11.625S18.422 1.013 12 1.013m5.71 7.964-1.908 8.99c-.141.638-.52.793-1.05.493l-2.907-2.142-1.401 1.35c-.155.154-.286.286-.586.286l.206-2.958 5.386-4.866c.235-.207-.052-.324-.361-.117l-6.657 4.19-2.868-.896c-.624-.196-.638-.623.13-.923l11.209-4.322c.52-.188.975.127.806.914"/></g><defs><clipPath id="a"><path fill="#fff" d="M0 .638h24v24H0z"/></clipPath></defs></svg>
